assets/image/news/campaign-24px.svg

<svg height="27" viewBox="0 0 27 27" width="27" xmlns="http://www.w3.org/2000/svg"><path d="m0 0h27v27h-27z" fill="none"/><path d="m23 17.875v2.25h4.5v-2.25zm-2.25 7.436c1.08.8 2.486 1.856 3.6 2.689.45-.6.9-1.2 1.35-1.8-1.114-.832-2.52-1.89-3.6-2.7-.45.608-.9 1.215-1.35 1.811zm4.95-13.511c-.45-.6-.9-1.2-1.35-1.8-1.114.832-2.52 1.89-3.6 2.7.45.6.9 1.2 1.35 1.8 1.08-.81 2.486-1.856 3.6-2.7zm-18.45 3.825a2.257 2.257 0 0 0 -2.25 2.25v2.25a2.257 2.257 0 0 0 2.25 2.25h1.125v4.5h2.25v-4.5h1.125l5.625 3.375v-13.5l-5.625 3.375zm12.938 3.375a5.04 5.04 0 0 0 -1.688-3.769v7.526a5 5 0 0 0 1.688-3.757z" fill="#fff" transform="translate(-2.75 -5.5)"/></svg>

<svg id="campaign-24px" xmlns="http://www.w3.org/2000/svg" width="27" height="27" viewBox="0 0 27 27">
  <path id="パス_72" data-name="パス 72" d="M0,0H27V27H0Z" fill="none"/>
  <path id="パス_73" data-name="パス 73" d="M23,17.875v2.25h4.5v-2.25Zm-2.25,7.436c1.08.8,2.486,1.856,3.6,2.689.45-.6.9-1.2,1.35-1.8-1.114-.832-2.52-1.89-3.6-2.7C21.65,24.108,21.2,24.715,20.75,25.311ZM25.7,11.8c-.45-.6-.9-1.2-1.35-1.8-1.114.832-2.52,1.89-3.6,2.7.45.6.9,1.2,1.35,1.8C23.18,13.69,24.586,12.644,25.7,11.8ZM7.25,15.625A2.257,2.257,0,0,0,5,17.875v2.25a2.257,2.257,0,0,0,2.25,2.25H8.375v4.5h2.25v-4.5H11.75l5.625,3.375V12.25L11.75,15.625ZM20.188,19A5.04,5.04,0,0,0,18.5,15.231v7.526A5,5,0,0,0,20.188,19Z" transform="translate(-2.75 -5.5)" fill="#fff"/>
</svg>
